X: 1702
T: Me and My True Love Polka
B: australian traditional tunes wiki
M:2/4
L:1/8
R: Polka
Q: 1/4=100
K:C
V:1 
g|:"C"Gc e>f|"G7"ed d>A|GB d>f|"C"ag g>g|Gc e>g|"F"gf A>A|
"G7"GB d>f|"C"ec c>c|Ge e>e|"G7"ed d>z|GB d>d|"C"ag g>g|
Gc e>g|"F"gf A>A|"G7"BA G>B|1"C"c2c>g:|2"C"c2c2||
% abcbook-tune_id 6342d53a5c3d0363390eb521


% abcbook-boost 0
% abcbook-tablature 
% abcbook-transpose 
% abcbook-lastupdated 1665324378871
% abcbook-soundfonts 
% abcbook-repeats 1
% NFF Book 2014

